X:1
T:Claude Debussy Berceuse Héroïque
T:Berceuse Héroïque
T:Claude Debussy 1914 
T:pour rendre hommage à S.M. le Roi ALBERT 1er de Belgique et à ses Soldats 
T:L. 132
T:Piano 4 mains
C:Claude Debussy
%%score { { ( 1 4 ) | ( 2 3 5 ) } ( 6 7 8 ) }
L:1/8
Q:1/4=72
M:2/2
K:Gb
V:1 treble nm="\n\n\n\n\n\n\n\n\n\n\n\n\nPiano"
V:4 treble 
V:2 bass 
V:3 bass 
V:5 bass 
V:6 bass nm="Grand Piano"
V:7 bass 
V:8 bass 
V:1
"^Modéré (sans lenteur)" z8 | z8 | z8 | z8 | z8 | z8 | z8 | z8 |[Q:1/4=60]"^T""^Retenu" z8 | z8 | %10
[Q:1/4=80] F2 E2 x2 [DG]2 | F2 ED x4 |[I:staff +1] (B,2[I:staff -1] D2 [CD_F]2 [DE]2 | %13
 =C2 E2 [EG]4-) | ([EG]2 A2 [_CEGA]2 [DFB]2) |!<(! (G2 A2) (A2 B2)!<)! | %16
!p! ([=CEG=c]3 [DFAd] [CEGc]2 [DFB][CEA] | [EGBe]2 [=DFB]2 [_D_FAd]2 [_CEA]2) | %18
 ([=CEG=c]3 [DFAd] [CEGc]2 [DFB][CEA] |"_dim." [_CEG_c]2 [=CF]2 [_CEA]2 =D2-) | %20
 z!p!"^un peu en dehors" (3.F/.F/.F/ (F/>=c/)c- c2- c(3.c/.c/.f/ |!>(! =cF/-c/ F4!>)! z2 | %22
 z"^écho" (3.F/.F/.F/ (F/>=c/)c- c2- c(3.c/.c/.f/ |!>(! =cF/-c/ F2!>)! z4 | %24
"^En animant et en augmentant peu à peu"[Q:1/4=85]"^T""_cresc."[I:staff +1] !tenuto![B,,B,]8 | %25
 !tenuto![=B,,=B,]8 |[Q:1/4=90]"^T" !tenuto![=C,=C]8 | [D,D]8 |[Q:1/4=95]"^T" ([D,_D]4 [=D,=D]4 | %29
[I:staff -1] E8) |[Q:1/4=100]"^T" (=E4 F4 | ^F8) |[Q:1/4=105]"^T" (^F4 =G4 | %33
 A4[Q:1/4=110]"^T" B4) | z4 z!f!"^en dehors" (!tenuto!.=g !tenuto!.=e>!tenuto!.f | !tenuto!.=g8) | %36
 z8 ||[K:C]"^Plus calme"[Q:1/4=100]"^T" x8 |[I:staff +1] G,2 A,>B, CB,CE |[I:staff -1] z8 | %40
[I:staff +1] D2 !tenuto!D>!tenuto!D (D2{ED} C>B, | C8) || %42
"^Revenir progressivement au Mouvement"[Q:1/4=95]"^T"[I:staff -1] z4 z!p!!<(! !tenuto!G (E>F | %43
[Q:1/4=90]"^T" G8)!<)! | z4 z!p![Q:1/4=85]"^T"!>(! !tenuto!G (E>F | G8)!>)! | x8[Q:1/4=83]"^T" | %47
[Q:1/4=82]"^T" z8 || %48
[K:Gb][Q:1/4=80]"^au Mouvement"!pp! (F2 E2[I:staff +1] [D,F,B,]2[I:staff -1] [DG]2 | %49
 F2 ED[I:staff +1] [G,B,]4) | (B,2[I:staff -1] D2 [CD_F]2 [CDE]2 | [B,=C]2 E2 G4-) | %52
 (G2 A2 [_CEGA]2 [B,DFB]2) |!<(! (G2 A2) (A2 B2)!<)! |!p! (=c3 d c2 BA | %55
"_dim. molto" .[EGBe]2 .[=DFB]2 .[_D_FAd]2 .[=CEA]2) | z4!p! [_CEGc]4 | [=CF]4 [_CEA]4 | z8 | z8 | %60
[Q:1/4=75]"^T" z"^lointain""^En retenant jusqu'à la fin" (3.F/.F/.F/ (F/>=c/)c-[Q:1/4=73]"^T" c2- c(3.c/.c/.f/ | %61
 =c!>(!F/c/[Q:1/4=70]"^T" F4!>)! z2 | %62
!<(! z"^plus lointain"[Q:1/4=65]"^T" (3.F/.F/.F/ (F/>=c/)c- c2- c(3.c/!<)!.c/.f/ | %63
[Q:1/4=60]"^T" =c!>(!F/-c/ F2!>)! z4 | %64
"^Lent"[Q:1/4=50]"^T" z2 (3(!tenuto![EF]!tenuto![EF]!tenuto![EF] [EF]>[B=c] [Bc]2-) | [Bc]8- | %66
 z4!ppp!!8va(! [e'b']4- | [e'b']8!8va)! |] %68
V:2
!pp!"_grave et soutenu" (B,,2 A,,2 F,,2 A,,2 | C,2 D,2 E,2 C,2) | (F,2 .E,.E, (C,2 G,2)) | %3
 (F,2 .E,.E, (A,2 B,2)) |!<(! (A,4 F,4 | G,4 F,4)!<)! |!>(! (A,4 F,4 | G,4 E,4)!>)! | z8 | z8 | %10
!pp! [A,C]2 [G,B,]2 [D,F,B,]2 B,2 | [A,C]2 [G,B,] [F,A,] [G,B,]4 | [_F,A,]2 [A,B,]2 x2 B,2 | %13
 G,2 =A,2 z4 | x8 | x8 | x8 | x8 | x8 | x6 =D,2- |!pp! [D,G,A,]8- | ([=D,G,=A,]4 [F,A,=C]4) | %22
!pp! [_D,F,_A,]8- | [D,F,A,]4 [_F,A,_C]4 | (A,2 _F,2 G,2 =D,2 | =D,2 =E,2 ^G,2 =A,2) | %26
 (B,2 _G,2 _A,2 =E,2- | E,2 F,2 =A,2 B,2) | (C2 _A,2 B,2 =G,2 | =A,2 _G,4 A,2) | =E,4 F,4 | ^F,8 | %32
 ^F,4 =G,4 | A,4 B,4 |[K:treble]!mf!"_e cresc. molto" (!tenuto![_C_c]4 !tenuto![B,B]4 | %35
 !tenuto![_D_d]6 !tenuto![Ee]2) |!f!!<(! [=EFAc=e]8!<)! || %37
[K:C][K:bass] z2!p! !tenuto!G,2 (E,3 F,) | G,6 ^F,2 | G,3 A, G,2!<(! (B,>C!<)! | %40
"_Expressif" A,4)!>(! ^G,4!>)! |!p!!>(! =G,4 ^F,4!>)! ||!p!!>(! ([_D,=F,C]8!>)! | %43
"_m.g." [_D,F,B,]8) |!p!!>(! (!tenuto![_D,F,C]8!>)! |"_m.g." [_D,F,B,]8) | %46
 z2"^sec." .[E,,G,,=B,,] z z2"^sec." .[D,,F,,A,,] z | z8 ||[K:Gb] [A,C]2 [G,B,]2 x2 B,2 | %49
 [A,C]2 [G,B,][F,A,] (=D,2 E,2 | [_F,A,]2) A,2 x4 | G,2 =A,2[I:staff -1] [=CE]4- | %52
 [=CE]4[I:staff +1] z4 |[I:staff -1] ([=DE]4 [_DEG]4) |[I:staff +1] =C3 D C2 B,A, | x2 B,2 x2 A,2 | %56
 x8 | =A,4 _A,4 |!<(! (B,4 C4)!<)! |!>(! (B,4!>)! =C4) |!pp! (D4"_m.g." =C4 | B,4 =C4) | %62
 (D4"_m.g." =C4 | B,4 =C4) |[K:treble] [F=c=g=c']8- | [F=c-=g-=c'-]8 |!ppp! [EF=c=g=c']8- | %67
 [EF=c=g=c']8 |] %68
V:3
 x8 | x8 | x8 | x8 | (G,2 F,2 E,2 C,2- | C,2 D,4 E,2) | (G,2 F,2 E,2 C,2- | C,2 D,4 C,2) | x8 | %9
 x8 | x8 | x4 =D,2 E,2 | x8 | x8 | x8 | x8 | x8 | x8 | x8 | x8 | x8 | x8 | x8 | x8 | x8 | x8 | x8 | %27
 x8 | x8 | E,8 | =D2 =B,2 _D2 _B,2 | =C2 =A,4 C2 | x8 | x8 |[K:treble] [=DFA]8 | [FAc]8 | x8 || %37
[K:C][K:bass] x8 | x8 | =F,4 E,2 z2 | D,8 | C,8 || x8 | x8 | x8 | x8 | x8 | x8 ||[K:Gb] x8 | x8 | %50
 x2 B,2 x4 | x8 | x8 | x8 | x8 | x8 | x8 | x8 | (A,2 F,6) | (A,2 _F,6) | [E,G,]8- | [E,G,]8 | %62
 [E,G,]8- | [E,G,]8 |[K:treble] x8 | x8 | x8 | x8 |] %68
V:4
 x8 | x8 | x8 | x8 | x8 | x8 | x8 | x8 | x8 | x8 | x8 | x8 | x8 | B,2 D2 =C4- | %14
 =C4 x2[I:staff +1] B,2 |[I:staff -1] ([=DE]4 [_DEG]4) | x6[I:staff +1] B, A, | x2 B,2 x2 A,2 | %18
 x6 B, A, |[I:staff -1] x2[I:staff +1] [F,=A,]2 _A,2 [G,=A,]2- |[I:staff -1] =D8- | =D4 F4 | =D8- | %23
 D4 _F4 | x8 | x8 | x8 | x8 | x8 | x8 | x8 | x8 | (E2 =C4) (E2- | E2 =C4) E2 | x8 | x8 | x8 || %37
[K:C] x8 | x8 | x8 | x8 | x8 || x8 | x8 | x8 | x8 | x8 | x8 ||[K:Gb] x8 | x8 | x8 | x2 D2 x4 | x8 | %53
 x8 | [GA]8 | x8 | x8 | x8 | x8 | x8 | x8 | x8 | x8 | x8 | x8 | x8 | [Bc]8!8va(! | x8!8va)! |] %68
V:5
 x8 | x8 | x8 | x8 | x8 | x8 | x8 | x8 | x8 | x8 | x8 | x8 | x8 | x8 | x8 | x8 | x8 | x8 | x8 | %19
 x8 | x8 | x8 | x8 | x8 | x8 | x8 | x8 | x8 | x8 | x8 | x8 | x8 | x8 | x8 |[K:treble] x8 | x8 | %36
 x8 ||[K:C][K:bass] x8 | x8 | x8 | x8 | x8 || x8 | x8 | x8 | x8 | x8 | x8 ||[K:Gb] x8 | x8 | x8 | %51
 x8 | x8 | x8 | x8 | x8 | x8 | x8 | A,8 | A,8 | x8 | x8 | x8 | x8 |[K:treble] x8 | x8 | x8 | x8 |] %68
V:6
 (B,,,2 A,,,2 F,,,2 A,,,2 | C,,2 D,,2 E,,2 C,,2) | (F,,2 .E,,.E,, (C,,2 G,,2)) | %3
 (F,,2 .E,,.E,, (A,,2 B,,2)) |[K:bass] (A,,4 F,,4 | G,,4 F,,4) | (A,,4 F,,4 | G,,4 E,,4) | %8
!pp!!<(! !tenuto!B,,8!<)! | !tenuto!B,,8 | B,,8 | B,,8 | B,,8 | B,,8 | B,,8 | B,,8 | B,,8 | B,,8 | %18
 B,,8 | B,,8 | B,,8 | B,,8 | B,,8 | B,,8 |!p! ([A,,,A,,]2 [_F,,,_F,,]2 [G,,,G,,]2 [=D,,,=D,,]2- | %25
 [=D,,,=D,,]2 [=E,,,=E,,]2 [^G,,,^G,,]2 [=A,,,=A,,]2) | %26
 ([B,,,B,,]2 [_G,,,_G,,]2 [_A,,,_A,,]2 [=E,,,=E,,]2- | %27
 [=E,,,=E,,]2 [F,,,F,,]2 [=A,,,=A,,]2 [B,,,B,,]2) | ([C,,C,]2 [F,,,F,,]2 [B,,,B,,]2 [=G,,,=G,,]2 | %29
 [=A,,,=A,,]2 [_G,,,_G,,]4 [A,,,A,,]2) | ([=D,,=D,]2 [=B,,,=B,,]2 [_D,,_D,]2 [_B,,,_B,,]2 | %31
 [=C,,=C,]2 [=A,,,=A,,]4 [C,,C,]2) | ([=E,,=E,]2 [=C,,=C,]4) ([E,,E,]2- | %33
 [=E,,=E,]2 [=C,,=C,]4) [E,,E,]2 | (.[A,,,A,,]2 .[=D,,=D,]2 .[A,,A,]2 .[D,=D]2) | %35
 (.[A,A]2 .[_D,_D]2 .[A,,A,]2 .[D,,D,]2) | [F,A,C]8 ||[K:C] z8 | z2 (E,4 D,2) | %39
 ([G,,B,,]4 [C,,C,]2) z2 | (F,,4 E,,4 | _E,,4 D,,4) || _A,,8- | _A,,8 | _A,,8- | _A,,8 | %46
 (_B,,,2- B,,,>_C,,) (B,,,2- B,,,>C,,) | (_B,,,2- B,,,>_C,,) (B,,,2- B,,,>C,,) || %48
[K:Gb] z2 (B,,2 z2) (B,,2 | z2) (B,,2 z2) (B,,2 | z2) (B,,2 z2) (B,,2 | %51
 B,,,2-) B,,,>(B,, B,2-) B,>(B,, | B,,,2-) B,,,>(B,, B,2-) B,>(B,, | B,,,2-) B,,,>B,, B,2- B,>B,, | %54
 [A,,E,A,]8 | (.[E,,B,,G,]2 .[B,,F,]2 .[D,,A,,_F,]2 .[A,,E,]2) | z4 ([C,G,]4 | %57
 [F,,=C,F,]4 [A,,E,]4) | (B,,4 C,4) | (B,,4 =C,4) | [E,,B,,]8- | [E,,B,,]8 | [E,,B,,]8- | %63
 [E,,B,,]8- | [B,,=G,B,]8- | [B,,=G,B,]8- | [B,,=G,B,]8- | [E,,B,,=G,B,]8 |] %68
V:7
 x8 | x8 | x8 | x8 |[K:bass] (G,,2 F,,2 E,,2 C,,2- | C,,2 D,,4 E,,2) | (G,,2 F,,2 E,,2 C,,2- | %7
 C,,2 D,,4 C,,2) | (.B,,,2 !tenuto!B,,,4 .B,,,2) | (.B,,,2 !tenuto!B,,,4 .B,,,2) | %10
 (.E,,2 .B,,,2 .E,,2 .B,,,2 | .E,,2 .B,,,2 .E,,2 .B,,,2) | (.E,,2 .B,,,2 .E,,2 .B,,,2 | %13
 .E,,2 .B,,,2 .E,,2 .B,,,2) | .E,,2 .B,,,2 .E,,2 .B,,,2 | .E,,2 .B,,,2 .E,,2 .B,,,2 | %16
 .E,,2 .B,,,2 .E,,2 .B,,,2 | .E,,2 .B,,,2 .E,,2 .B,,,2 | .E,,2 .B,,,2 .E,,2 .B,,,2 | %19
 .E,,2 .B,,,2 .E,,2 .B,,,2 | .E,,2 .B,,,2 .E,,2 .B,,,2 | .E,,2 .B,,,2 .E,,2 .B,,,2 | %22
 .E,,2 .B,,,2 .E,,2 .B,,,2 | .E,,2 .B,,,2 .E,,2 .B,,,2 | x8 | x8 | x8 | x8 | x8 | x8 | x8 | x8 | %32
 x8 | x8 | x8 | x8 | [A,,,A,,]2 [=D,,=D,]2 [A,,A,]2 [D,=D]2 ||[K:C] x8 | x2 (C,2 A,,2 D,,2) | x8 | %40
 x8 | x8 || (._D,,2 ._A,,,>)(.A,,, .D,,2) .A,,,2 | z2 ._E,,>(.E,, ._D,,2) .E,,2 | %44
 (._D,,2 ._A,,,>)(.A,,, .D,,2) .A,,,2 | z2 ._E,,>(.E,, ._D,,2) .E,,2 | x8 | x8 || %48
[K:Gb] (B,,,2- B,,,>C,,) (B,,,2- B,,,>C,,) | (B,,,2- B,,,>C,,) (B,,,2- B,,,>C,,) | %50
 (B,,,2- B,,,>C,,) (B,,,2- B,,,>C,,) | x8 | x8 | x8 | x8 | x8 | x8 | x8 | (A,,2 F,,6) | %59
 (A,,2 _F,,6) | x8 | x8 | x8 | x8 | E,,6 .B,,,2 | .E,,2 .B,,,2 .E,,2 .B,,,2 | E,,4 .E,,,2 z2 | %67
 .E,,,2 z2 z4 |] %68
V:8
 x8 | x8 | x8 | x8 |[K:bass] x8 | x8 | x8 | x8 | x8 | x8 | x8 | x8 | x8 | x8 | x8 | x8 | x8 | x8 | %18
 x8 | x8 | x8 | x8 | x8 | x8 | x8 | x8 | x8 | x8 | x8 | x8 | x8 | x8 | x8 | x8 | x8 | x8 | x8 || %37
[K:C] x8 | x8 | x8 | x8 | x8 || x8 | x8 | x8 | x8 | x8 | x8 ||[K:Gb] x8 | x8 | x8 | x8 | x8 | x8 | %54
 x8 | x8 | x8 | x8 | A,,8 | A,,8 | x8 | x8 | x8 | x8 | x8 | x8 | x8 | x8 |] %68

